X: 53
%
U:~=!turn!
T: Borlum's Rant
C:
O:Scotland
B:Keith Norman MacDonald : "The Skye collection of the best reels & strathspeys extant" : 1887
Z:Ralph Palmer
R:Reel
M:C
L:1/8
K:F
d !segno!|: c<Af>A c2 Ld2 | c>Af>A G2 Ld2 | c<Af>A c<Aa>g | f>d{/d}c>A G2 Ld2 :| F>AF>A c2 Ld2 | F>AF>A G2 Ld2 |
F>AF>A F>AF>A | (B/A/B/c/) (d/c/B/A/) G2 Ld2 | F>AF>A G2 Ld2 | F>AF>A G2 Ld2 | F>FC>F A,>FC>A | B>c d/c/B/A/ G2 Ld2 !segno!|| H[F8A8c8] |]


